X:0129
M:2/4
L:1/8
Q:1/2=84
K:A Dorian
E|ABcA |E2 EF|G2 AB|(d/c/B/A/) GB|AGAB |E2E=f|edcB|A2A:|

